src/xmb/flatui/Nintendo - Game Boy-content.svg

<?xml version="1.0" encoding="UTF-8" standalone="no"?>
<!-- Created with Inkscape (http://www.inkscape.org/) -->

<svg
   xmlns:dc="http://purl.org/dc/elements/1.1/"
   xmlns:cc="http://creativecommons.org/ns#"
   xmlns:rdf="http://www.w3.org/1999/02/22-rdf-syntax-ns#"
   xmlns:svg="http://www.w3.org/2000/svg"
   xmlns="http://www.w3.org/2000/svg"
   xmlns:sodipodi="http://sodipodi.sourceforge.net/DTD/sodipodi-0.dtd"
   xmlns:inkscape="http://www.inkscape.org/namespaces/inkscape"
   id="svg2"
   version="1.1"
   inkscape:version="0.91 r13725"
   width="64"
   height="64"
   sodipodi:docname="Nintendo - Game Boy-content.svg">
  <metadata
     id="metadata8">
    <rdf:RDF>
      <cc:Work
         rdf:about="">
        <dc:format>image/svg+xml</dc:format>
        <dc:type
           rdf:resource="http://purl.org/dc/dcmitype/StillImage" />
        <dc:title />
      </cc:Work>
    </rdf:RDF>
  </metadata>
  <defs
     id="defs6" />
  <sodipodi:namedview
     pagecolor="#ffffff"
     bordercolor="#666666"
     borderopacity="1"
     objecttolerance="10"
     gridtolerance="10"
     guidetolerance="10"
     inkscape:pageopacity="0"
     inkscape:pageshadow="2"
     inkscape:window-width="1440"
     inkscape:window-height="836"
     id="namedview4"
     showgrid="true"
     inkscape:snap-bbox="true"
     inkscape:zoom="6.8374781"
     inkscape:cx="26.728069"
     inkscape:cy="26.565333"
     inkscape:window-x="0"
     inkscape:window-y="27"
     inkscape:window-maximized="1"
     inkscape:current-layer="svg2">
    <inkscape:grid
       type="xygrid"
       id="grid2989"
       empspacing="4"
       visible="true"
       enabled="true"
       snapvisiblegridlinesonly="true" />
  </sodipodi:namedview>
  <g
     inkscape:groupmode="layer"
     id="layer2"
     inkscape:label="logo"
     style="display:inline;opacity:1">
    <g
       id="g4481"
       style="fill:#bdc3c7;fill-opacity:1">
      <rect
         ry="1.2156863"
         y="1"
         x="5.5"
         height="62"
         width="48.5"
         id="rect3973"
         style="fill:#bdc3c7;fill-opacity:1;stroke:none" />
      <rect
         rx="0"
         ry="1.1568629"
         y="4"
         x="11"
         height="59"
         width="47.5"
         id="rect3973-5"
         style="fill:#bdc3c7;fill-opacity:1;stroke:none" />
      <rect
         transform="scale(-1,1)"
         ry="0"
         y="15.524678"
         x="-8.5"
         height="2.4753215"
         width="3.5"
         id="rect5380-9-3-6-0"
         style="fill:#bdc3c7;fill-opacity:1;stroke:none;display:inline" />
      <rect
         transform="scale(-1,1)"
         ry="1.0295653"
         y="1"
         x="-10"
         height="5"
         width="5"
         id="rect5380-9-3-0-8"
         style="fill:#bdc3c7;fill-opacity:1;stroke:none;display:inline" />
    </g>
    <path
       style="fill:#9b59b6;fill-opacity:1;stroke:none"
       d="m 5,26 0,0.973684 0,35.052632 C 5,62.565737 5.446,63 6,63 L 6,26.973684 6,26 5,26 z"
       id="rect3181-2"
       inkscape:connector-curvature="0" />
    <rect
       style="fill:#95a5a6;fill-opacity:1;stroke:none"
       id="rect3991"
       width="42"
       height="11"
       x="11"
       y="5"
       ry="5.5" />
    <rect
       style="fill:#2980b9;fill-opacity:1;stroke:none"
       id="rect3993"
       width="42"
       height="38"
       x="11"
       y="18"
       ry="1" />
    <g
       id="g4411">
      <rect
         ry="0.91203344"
         y="16"
         x="56"
         height="47"
         width="3"
         id="rect5055-5-5-1-0-7"
         style="fill:#bdc3c7;fill-opacity:1;stroke:none;display:inline" />
      <rect
         ry="0.37509853"
         y="9"
         x="54"
         height="0.99324828"
         width="5"
         id="rect5055-5-8"
         style="fill:#bdc3c7;fill-opacity:1;stroke:none;display:inline" />
      <rect
         ry="0.37509853"
         y="11.006752"
         x="54"
         height="0.99324828"
         width="5"
         id="rect5055-5-5-6"
         style="fill:#bdc3c7;fill-opacity:1;stroke:none;display:inline" />
      <rect
         ry="0.37764826"
         y="13.000002"
         x="53"
         height="0.99999988"
         width="6"
         id="rect5055-5-9-2"
         style="fill:#bdc3c7;fill-opacity:1;stroke:none;display:inline" />
      <rect
         ry="0.37764826"
         y="15"
         x="52"
         height="0.99999988"
         width="7"
         id="rect5055-5-5-1-8"
         style="fill:#bdc3c7;fill-opacity:1;stroke:none;display:inline" />
      <rect
         ry="1"
         y="59"
         x="55"
         height="4"
         width="4"
         id="rect5380-9"
         style="fill:#bdc3c7;fill-opacity:1;stroke:none;display:inline" />
      <rect
         ry="0.37509853"
         y="7"
         x="53"
         height="0.99324828"
         width="6"
         id="rect5055-5-8-8"
         style="fill:#bdc3c7;fill-opacity:1;stroke:none;display:inline" />
      <rect
         ry="0.37509853"
         y="5"
         x="52"
         height="0.99324828"
         width="7"
         id="rect5055-5-8-8-2"
         style="fill:#bdc3c7;fill-opacity:1;stroke:none;display:inline" />
      <rect
         ry="0.40665531"
         y="4"
         x="55.5"
         height="2"
         width="3.5"
         id="rect5380-9-3"
         style="fill:#bdc3c7;fill-opacity:1;stroke:none;display:inline" />
      <rect
         ry="0"
         y="15.524678"
         x="55.5"
         height="2.4753215"
         width="3.5"
         id="rect5380-9-3-6"
         style="fill:#bdc3c7;fill-opacity:1;stroke:none;display:inline" />
    </g>
    <g
       id="g4423"
       style="fill:#bdc3c7;fill-opacity:1">
      <rect
         transform="scale(-1,1)"
         ry="0.91203344"
         y="16"
         x="-8"
         height="47"
         width="3"
         id="rect5055-5-5-1-0-7-0"
         style="fill:#bdc3c7;fill-opacity:1;stroke:none;display:inline" />
      <rect
         transform="scale(-1,1)"
         ry="1"
         y="59"
         x="-9"
         height="4"
         width="4"
         id="rect5380-9-38"
         style="fill:#bdc3c7;fill-opacity:1;stroke:none;display:inline" />
      <g
         id="g4403"
         style="fill:#bdc3c7;fill-opacity:1">
        <rect
           style="fill:#bdc3c7;fill-opacity:1;stroke:none;display:inline"
           id="rect5055-5-8-2"
           width="5"
           height="0.99324828"
           x="-10"
           y="9"
           ry="0.37509853"
           transform="scale(-1,1)" />
        <rect
           style="fill:#bdc3c7;fill-opacity:1;stroke:none;display:inline"
           id="rect5055-5-5-6-6"
           width="5"
           height="0.99324828"
           x="-10"
           y="11.006752"
           ry="0.37509853"
           transform="scale(-1,1)" />
        <rect
           style="fill:#bdc3c7;fill-opacity:1;stroke:none;display:inline"
           id="rect5055-5-9-2-7"
           width="6"
           height="0.99999988"
           x="-11"
           y="13.000002"
           ry="0.37764826"
           transform="scale(-1,1)" />
        <rect
           style="fill:#bdc3c7;fill-opacity:1;stroke:none;display:inline"
           id="rect5055-5-5-1-8-5"
           width="7"
           height="0.99999988"
           x="-12"
           y="15"
           ry="0.37764826"
           transform="scale(-1,1)" />
        <rect
           style="fill:#bdc3c7;fill-opacity:1;stroke:none;display:inline"
           id="rect5055-5-8-8-5"
           width="6"
           height="0.99324828"
           x="-11"
           y="7"
           ry="0.37509853"
           transform="scale(-1,1)" />
        <rect
           style="fill:#bdc3c7;fill-opacity:1;stroke:none;display:inline"
           id="rect5055-5-8-8-2-9"
           width="7"
           height="0.99324828"
           x="-12"
           y="5"
           ry="0.37509853"
           transform="scale(-1,1)" />
      </g>
    </g>
    <path
       style="fill:#95a5a6;fill-opacity:1;stroke:none;display:inline"
       d="m 5,26 0,0.973684 0,35.052632 C 5,62.565737 5.446,63 6,63 L 6,26.973684 6,26 5,26 z"
       id="rect3181-2-2-2"
       inkscape:connector-curvature="0" />
    <path
       style="fill:#95a5a6;fill-opacity:1;stroke:none"
       d="m 59,26 0,0.973684 0,35.052632 C 59,62.565737 58.554,63 58,63 L 58,26.973684 58,26 l 1,0 z"
       id="rect3181-2-2"
       inkscape:connector-curvature="0" />
    <g
       id="g4356"
       style="fill:#95a5a6;fill-opacity:1">
      <path
         id="rect4262"
         d="M 5.5 6 L 5.5 7 L 11.03125 7 C 11.261298 6.6414511 11.518555 6.3057663 11.8125 6 L 5.5 6 z "
         style="fill:#95a5a6;fill-opacity:1;stroke:none" />
      <path
         id="rect4262-3"
         d="M 5.5 8 L 5.5 9 L 10.1875 9 C 10.269115 8.6552429 10.36591 8.3210842 10.5 8 L 5.5 8 z "
         style="fill:#95a5a6;fill-opacity:1;stroke:none;display:inline" />
      <path
         id="rect4262-8"
         d="M 5.5 10 L 5.5 11 L 10.03125 11 C 10.018275 10.832262 10 10.671066 10 10.5 C 10 10.328934 10.018275 10.167738 10.03125 10 L 5.5 10 z "
         style="fill:#95a5a6;fill-opacity:1;stroke:none;display:inline" />
      <path
         id="rect4262-7"
         d="M 5.5 12 L 5.5 13 L 10.5 13 C 10.36591 12.678916 10.269115 12.344757 10.1875 12 L 5.5 12 z "
         style="fill:#95a5a6;fill-opacity:1;stroke:none;display:inline" />
      <path
         id="rect4262-78"
         d="M 5.5 14 L 5.5 15 L 11.8125 15 C 11.518555 14.694234 11.261298 14.358549 11.03125 14 L 5.5 14 z "
         style="fill:#95a5a6;fill-opacity:1;stroke:none;display:inline" />
    </g>
    <g
       transform="matrix(-1,0,0,1,64.010743,0)"
       style="display:inline;fill:#95a5a6;fill-opacity:1"
       id="g4356-3">
      <path
         inkscape:connector-curvature="0"
         id="rect4262-6"
         d="m 5.5,6 0,1 5.53125,0 C 11.261298,6.6414511 11.518555,6.3057663 11.8125,6 L 5.5,6 z"
         style="fill:#95a5a6;fill-opacity:1;stroke:none" />
      <path
         inkscape:connector-curvature="0"
         id="rect4262-3-3"
         d="m 5.5,8 0,1 4.6875,0 C 10.269115,8.6552429 10.36591,8.3210842 10.5,8 l -5,0 z"
         style="fill:#95a5a6;fill-opacity:1;stroke:none;display:inline" />
      <path
         inkscape:connector-curvature="0"
         id="rect4262-8-9"
         d="m 5.5,10 0,1 4.53125,0 C 10.018275,10.832262 10,10.671066 10,10.5 10,10.328934 10.018275,10.167738 10.03125,10 L 5.5,10 z"
         style="fill:#95a5a6;fill-opacity:1;stroke:none;display:inline" />
      <path
         inkscape:connector-curvature="0"
         id="rect4262-7-8"
         d="m 5.5,12 0,1 5,0 C 10.36591,12.678916 10.269115,12.344757 10.1875,12 L 5.5,12 z"
         style="fill:#95a5a6;fill-opacity:1;stroke:none;display:inline" />
      <path
         inkscape:connector-curvature="0"
         id="rect4262-78-2"
         d="m 5.5,14 0,1 6.3125,0 C 11.518555,14.694234 11.261298,14.358549 11.03125,14 L 5.5,14 z"
         style="fill:#95a5a6;fill-opacity:1;stroke:none;display:inline" />
    </g>
    <path
       style="fill:#95a5a6;fill-opacity:1;stroke:#95a5a6;stroke-width:1.68465829000000000px;stroke-linecap:butt;stroke-linejoin:round;stroke-opacity:1;display:inline"
       d="m 35,58 -3,3 -3,-3 z"
       id="path4435"
       inkscape:connector-curvature="0"
       sodipodi:nodetypes="cccc" />
  </g>
</svg>

<svg xmlns="http://www.w3.org/2000/svg" width="64" height="64"><g style="display:inline;opacity:1"><g style="fill:#bdc3c7;fill-opacity:1"><rect width="48.5" height="62" x="5.5" y="1" ry="1.216" style="fill:#bdc3c7;fill-opacity:1;stroke:none"/><rect width="47.5" height="59" x="11" y="4" rx="0" ry="1.157" style="fill:#bdc3c7;fill-opacity:1;stroke:none"/><rect width="3.5" height="2.475" x="-8.5" y="15.525" ry="0" style="fill:#bdc3c7;fill-opacity:1;stroke:none;display:inline" transform="scale(-1 1)"/><rect width="5" height="5" x="-10" y="1" ry="1.03" style="fill:#bdc3c7;fill-opacity:1;stroke:none;display:inline" transform="scale(-1 1)"/></g><path d="M5 26v36.026c0 .54.446.974 1 .974V26z" style="fill:#9b59b6;fill-opacity:1;stroke:none"/><rect width="42" height="11" x="11" y="5" ry="5.5" style="fill:#95a5a6;fill-opacity:1;stroke:none"/><rect width="42" height="38" x="11" y="18" ry="1" style="fill:#2980b9;fill-opacity:1;stroke:none"/><rect width="3" height="47" x="56" y="16" ry=".912" style="fill:#bdc3c7;fill-opacity:1;stroke:none;display:inline"/><rect width="5" height=".993" x="54" y="9" ry=".375" style="fill:#bdc3c7;fill-opacity:1;stroke:none;display:inline"/><rect width="5" height=".993" x="54" y="11.007" ry=".375" style="fill:#bdc3c7;fill-opacity:1;stroke:none;display:inline"/><rect width="6" height="1" x="53" y="13" ry=".378" style="fill:#bdc3c7;fill-opacity:1;stroke:none;display:inline"/><rect width="7" height="1" x="52" y="15" ry=".378" style="fill:#bdc3c7;fill-opacity:1;stroke:none;display:inline"/><rect width="4" height="4" x="55" y="59" ry="1" style="fill:#bdc3c7;fill-opacity:1;stroke:none;display:inline"/><rect width="6" height=".993" x="53" y="7" ry=".375" style="fill:#bdc3c7;fill-opacity:1;stroke:none;display:inline"/><rect width="7" height=".993" x="52" y="5" ry=".375" style="fill:#bdc3c7;fill-opacity:1;stroke:none;display:inline"/><rect width="3.5" height="2" x="55.5" y="4" ry=".407" style="fill:#bdc3c7;fill-opacity:1;stroke:none;display:inline"/><rect width="3.5" height="2.475" x="55.5" y="15.525" ry="0" style="fill:#bdc3c7;fill-opacity:1;stroke:none;display:inline"/><g style="fill:#bdc3c7;fill-opacity:1" transform="scale(-1 1)"><rect width="3" height="47" x="-8" y="16" ry=".912" style="fill:#bdc3c7;fill-opacity:1;stroke:none;display:inline"/><rect width="4" height="4" x="-9" y="59" ry="1" style="fill:#bdc3c7;fill-opacity:1;stroke:none;display:inline"/><g style="fill:#bdc3c7;fill-opacity:1"><rect width="5" height=".993" x="-10" y="9" ry=".375" style="fill:#bdc3c7;fill-opacity:1;stroke:none;display:inline"/><rect width="5" height=".993" x="-10" y="11.007" ry=".375" style="fill:#bdc3c7;fill-opacity:1;stroke:none;display:inline"/><rect width="6" height="1" x="-11" y="13" ry=".378" style="fill:#bdc3c7;fill-opacity:1;stroke:none;display:inline"/><rect width="7" height="1" x="-12" y="15" ry=".378" style="fill:#bdc3c7;fill-opacity:1;stroke:none;display:inline"/><rect width="6" height=".993" x="-11" y="7" ry=".375" style="fill:#bdc3c7;fill-opacity:1;stroke:none;display:inline"/><rect width="7" height=".993" x="-12" y="5" ry=".375" style="fill:#bdc3c7;fill-opacity:1;stroke:none;display:inline"/></g></g><path d="M5 26v36.026c0 .54.446.974 1 .974V26z" style="fill:#95a5a6;fill-opacity:1;stroke:none;display:inline"/><path d="M59 26v36.026c0 .54-.446.974-1 .974V26z" style="fill:#95a5a6;fill-opacity:1;stroke:none"/><g style="fill:#95a5a6;fill-opacity:1"><path d="M5.5 6v1h5.531q.343-.54.781-1z" style="fill:#95a5a6;fill-opacity:1;stroke:none"/><path d="M5.5 8v1h4.688c.081-.345.178-.679.312-1zm0 2v1h4.531c-.013-.168-.031-.329-.031-.5s.018-.332.031-.5zm0 2v1h5a6.4 6.4 0 0 1-.312-1zm0 2v1h6.313a6.5 6.5 0 0 1-.782-1z" style="fill:#95a5a6;fill-opacity:1;stroke:none;display:inline"/></g><g style="display:inline;fill:#95a5a6;fill-opacity:1"><path d="M5.5 6v1h5.531q.343-.54.781-1z" style="fill:#95a5a6;fill-opacity:1;stroke:none" transform="matrix(-1 0 0 1 64.01 0)"/><path d="M5.5 8v1h4.688c.081-.345.178-.679.312-1zm0 2v1h4.531c-.013-.168-.031-.329-.031-.5s.018-.332.031-.5zm0 2v1h5a6.4 6.4 0 0 1-.312-1zm0 2v1h6.313a6.5 6.5 0 0 1-.782-1z" style="fill:#95a5a6;fill-opacity:1;stroke:none;display:inline" transform="matrix(-1 0 0 1 64.01 0)"/></g><path d="m35 58-3 3-3-3z" style="fill:#95a5a6;fill-opacity:1;stroke:#95a5a6;stroke-width:1.68465829px;stroke-linecap:butt;stroke-linejoin:round;stroke-opacity:1;display:inline"/></g></svg>
